X: 1
T: Ballydesmond March, The
M: 4/4
L: 1/8
R: barndance
K: Gmaj
|: DG | B2 A>B cB AF | G>F GB D2 DE/F/ | G2 A>B cB A/B/A/G/ | F2 d>^c d2 DG |
B>c BA G2 GA/B/ | c>G E/G/c e2 d>c | BD B/c/d cD F/G/A | G2 G>F G2 :|
|: A/B/c | d2 ^c/d/e/f/ gd =cB | c>B B/c/d cA FD | G2 c/B/A/G/ BG A/G/F/E/ | D2 d>^c d2 GF |
E2 E>G cE dc | BG D/E/F/G/ B2 d>c | Bg B/c/d/B/ c>A FD | G>F GA G2 :|
